X:1
T:Lentz, LM
T:Lentz, LM
T:Anonymous, 1883
T:Public Domain Courtesy of the Cyber Hymnal™
C:Anonymous, 1883
Z:Public Domain
Z:Courtesy of the Cyber Hymnal™
%%score ( 1 2 ) ( 3 4 )
L:1/8
M:3/4
K:Eb
V:1 treble 
V:2 treble 
V:3 bass 
V:4 bass 
V:1
 [EG]2 | [EB]4 [FA]2 | [EG]4 [DF]2 | ([CE]2 [FA]2) [EG]2 | ([EG]2 [DF]2) F2 | [EG]4 [E=A]2 | %6
 [FB]4 [Gc]2 | [Fd]4 [Ec]2 | [DB]4 [FB]2 | =B4 [AB]2 | [Gc]4 [Fd]2 | [Ee]4 [EG]2 | %12
 ([EG]2 [DF]2) [Fd]2 | [Ee]4 [Fd]2 | [Ec]4 [FA]2 | ([EG]2 [FA]2) [DF]2 | E4 |] %17
V:2
 x2 | x6 | x6 | x6 | x4 F2 | x6 | x6 | x6 | x6 | (F2 G2) x2 | x6 | x6 | x6 | x6 | x6 | x6 | E4 |] %17
V:3
 [E,B,]2 | [G,B,]4 [D,B,]2 | [E,B,]4 [=B,,G,]2 | ([C,G,]2 [A,,C]2) [=A,,C]2 | [B,,B,]4 [D,B,]2 | %5
 [E,B,]4 [C,C]2 | [D,B,]4 [E,B,]2 | (B,2 G,2) [F,=A,]2 | [B,,B,]4 [B,D]2 | D4 [F,D]2 | %10
 [E,E]4 [D,=B,]2 | [C,C]4 [=A,,C]2 | [B,,B,]4 [A,B,]2 | [G,B,]4 [G,=B,]2 | [A,C]4 [A,,C]2 | %15
 [B,,B,]4 [B,,A,]2 | [E,G,]4 |] %17
V:4
 x2 | x6 | x6 | x6 | x6 | x6 | x6 | F,4 x2 | x6 | (A,2 G,2) x2 | x6 | x6 | x6 | x6 | x6 | x6 | %16
 x4 |] %17

